!! 00000] TT[WS
!!!OTL: Jian lantan
!!!ARE: Asia, China, Shanxi Dingxiang
!! Ethnic Group: Han
!! WII, 173 (2)
!!!SCT: J0661
!!!YEM: Copyright 1995, estate of Helmut Schaffrath.
**kern
*ICvox
*Ivox
*M2/4
*k[b-]
*F:
{4dd
8dd
8ff
=1
4dd
8a
8cc
=2
8.ff
16ff
8ff
8dd
=3
4.cc
8a}
=4
{4cc
8a
8cc
=5
4dd
8cc
8a
=6
8.g
16a
8f
8a
=7
2g}
=8
{4a
8a
8g
=9
8a
4ff
8dd
=10
4a
4cc
=11
4.f
8d}
=12
{8dd
4cc
8dd
=13
4cc
4a
=14
8.g
16c
8d
8e
=15
2d}
==
!!!AGN: Xiaodiao, Qingge
!!!ONB: ESAC (Essen Associative Code) Database: CHINA
!!!AMT: simple duple
!!!AIN: vox
!!!EED: Helmut Schaffrath
!!!EEV: 1.0
*-
